X:1
T:Title
%%score { ( 1 4 ) | ( 2 3 ) }
L:1/8
Q:1/4=100
M:4/4
K:D
V:1 treble nm="Grand Piano"
V:4 treble 
V:2 bass 
V:3 bass 
V:1
 F2 F2 FE D2 | [FA]2 [FA]2 [FA][EG] [DF]2 | [Fd]2 A2 B2 A2 | G2 F2 [CE]4 | F2 F2 FE D2 | %5
w: Chas.~H.~Gabriel * * * *|||||
 [FA]2 [FA]2 [FA][EG] [DF]2 | [Fd]2 d2 c2 [EA]2 |[M:9/8] B2 ^G- G A2- [A,=GA]3 | %8
w: |||
[M:4/4] [Fd]3 [Fd] [Fd]2 [DFA]2 | [DGc]2 [DGB]2 [DFA]2 [A,DF]2 | [Fd]3 [Fd] [Ed]2 [EB]2 | %11
w: |||
 [Ec]2 [D^Gd]2 [C=Ge]4 | f- [Af]2 [Ge] [Fd]2 [DFA]2 | [DGc]2 [DGB]2 [DFA]2 [Fd]2 | D3 E F2 AG | %15
w: ||||
 [A,DF]2[K:bass] [G,CE]2 [F,D]4 |] %16
w: |
V:2
 z4 .A,2 z2 | [D,D]2 [D,D]2 [D,D]2 [D,A,]2 | [D,A,]2 [F,D]2 [G,DG]2 [F,D]2 | %3
 [E,A,C]2 [D,A,D]2 [A,,A,]4 | z4 .A,2 z2 | [D,D]2 [D,D]2 [D,D]2 [D,A,]2 | %6
 [D,A,]2 [E,^G,E]2 [A,E]2 [C,A,]2 |[M:9/8] [D,F,D]2 [E,D]- [E,D] A,,2- A,,3 | %8
[M:4/4] [D,A,]3 [D,A,] [D,A,]2 D,2 | G,,A,,B,,C, D,2 D,2 | [D,A,]3 [D,A,] [E,^G,]2 [D,G,]2 | %11
 [C,A,]2 B,,2 A,,4 | [D,D]3 [D,A,] [D,A,]2 D,2 | G,,A,,B,,C, D,2 [D,A,]2 | %14
 [F,A,]3[K:treble] [G,B,D] [A,D]2 FE | A,,2 A,,2 D,4 |] %16
V:3
 [D,A,D]2 [D,A,D]2 [D,D]-[D,G,D] [D,F,]2 | x8 | x8 | x8 | [D,A,D]2 [D,A,D]2 [D,D]-[D,G,D] [D,F,]2 | %5
 x8 | x8 |[M:9/8] z3 z E,2 z3 |[M:4/4] x8 | x8 | x8 | x8 | x8 | x8 | z4[K:treble] z2 A,2 | x8 |] %16
V:4
 x8 | x8 | x8 | x8 | x8 | x8 | x8 |[M:9/8] z3 z C2 z3 |[M:4/4] x8 | x8 | x8 | x8 | .[FA]2 z2 z4 | %13
 x8 | x8 | x2[K:bass] x6 |] %16

